data/icons/scalable/actions/away-symbolic.svg

<?xml version="1.0" encoding="UTF-8"?>
<svg height="16px" viewBox="0 0 16 16" width="16px" xmlns="http://www.w3.org/2000/svg">
    <path d="m 4.03125 1.003906 c -1.660156 0 -3.03125 1.371094 -3.03125 3.035156 v 7.917969 c 0 1.664063 1.371094 3.03125 3.03125 3.03125 h 7.9375 v -2 h -7.9375 c -0.585938 0 -1.03125 -0.441406 -1.03125 -1.03125 v -7.917969 c 0 -0.589843 0.445312 -1.035156 1.03125 -1.035156 h 7.9375 v -2 z m 4.96875 2.996094 v 1 c 0 0.257812 0.128906 0.527344 0.3125 0.71875 l 1.28125 1.28125 h -4.59375 v 2 h 4.59375 l -1.28125 1.28125 c -0.183594 0.191406 -0.3125 0.410156 -0.3125 0.71875 v 1 h 1 c 0.308594 0 0.550781 -0.089844 0.75 -0.28125 l 3.65625 -3.71875 l -3.65625 -3.71875 c -0.199219 -0.191406 -0.441406 -0.28125 -0.75 -0.28125 z m 0 0" fill="#222222"/>
</svg>

<svg xmlns="http://www.w3.org/2000/svg" width="16" height="16" viewBox="0 0 16 16"><path fill="#222" d="M4.031 1.004A3.05 3.05 0 0 0 1 4.039v7.918a3.047 3.047 0 0 0 3.031 3.031h7.938v-2H4.03A1.01 1.01 0 0 1 3 11.957V4.039c0-.59.445-1.035 1.031-1.035h7.938v-2zM9 4v1c0 .258.129.527.313.719L10.593 7H6v2h4.594l-1.281 1.281c-.184.192-.313.41-.313.719v1h1c.309 0 .55-.09.75-.281L14.406 8 10.75 4.281C10.55 4.09 10.309 4 10 4zm0 0"/></svg>
